X: 583
T: Uva'u ha'ovdim
T: We came as slaves
C: Shlomo Carlebach
O: Isaiah 27:13
Z: 2008 John Chambers <jc:trillian.mit.edu>
S: Printed MS of unknown origin ("26" at bottom)
M: C
L: 1/8
K: Dm
"A"\
|:"Dm"D F2 F FD "Gm"G2 | "Dm"D F2 F FD "Gm"G2 | "Dm"D F2 F FD AG |
w: U-va-u ha-ov-dim b'-e-retz a-*shur v'-ha-ni-da-*him b'-
| "Dm"F2 F>F F2 F2 "B"::"F"AA AA AA A2 | "Gm"zB AG A2 G2 |
w: e-retz mitz-ra-yim v'-hish-ta-ha-vu la-shem b'-har ha-ko-desh
| "Gm"DG GG GG G2 |1 "C7"zA GF G2 "F"F2 :|2  "C7"zA GF G2 "F"FA ||
w: v'-hish-ta-ha-vu la-shem b'-har ha-ko-desh b'-har ha-ko-desh bi-
"C"\
|:"D7"d4 c2 A2 | "Gm"G6 zG | "C"c4 "C7"A2 G2 | "F"F6 zA |
w: ru-sh-la-yim bi-ru-sh-la-yim bi-
| "D7"d4 c2 A2 | "Gm"G6 zc | "Am"c4 "A7"f2 e2 |1 "Dm"d6 zA :|2 "Dm"d6 z2 |]
w: ru-sh-la-yim bi-ru-sh-la-yim bi- yim.
%
W: And they shall come that were enslaved in the land of Assyria, and they that
W: were dispersed in the land of Egypt; and they shall worship the lord in the
W: holy mountain at Jerusalem.
